assets/bank-tab/Asset/xpresswayicon.svg

<svg width="24" height="17" viewBox="0 0 24 17" fill="none" xmlns="http://www.w3.org/2000/svg">
<path d="M10.1441 12.124C6.13017 14.4304 3.99984 15.2378 0.571289 17L23.9006 0.577478L23.9999 0.6569L19.5165 9.60674C19.1413 9.01561 18.7944 8.49176 18.4726 7.95184C18.277 7.62373 18.1044 7.52737 17.7351 7.74959C16.4656 8.51346 15.1707 9.23089 13.8866 9.96871C13.8216 10.006 13.7678 10.0651 13.6636 10.151C15.1915 12.4057 16.742 14.6721 18.2841 16.9473C18.1049 16.9473 17.9552 16.9429 17.8439 16.9429C16.6124 16.9447 13.8212 16.9295 13.8212 16.9295C13.8212 16.9295 13.7349 16.8066 13.6336 16.6599C12.6238 15.1969 11.6245 13.7256 10.6548 12.2338C10.4735 11.9543 10.3617 11.999 10.1441 12.124Z" fill="#EC1C24"/>
<path d="M7.99418 11.1568C7.50015 11.504 7.00654 11.8508 6.51167 12.1989L0 16.4123L2.66628 14.0283C3.6064 13.2249 5.47317 11.376 8.56909 8.70594C6.95025 6.35271 5.27431 3.92135 3.59919 1.48565C3.81014 1.48565 7.87995 1.49 7.87995 1.49C7.87995 1.49 7.98834 1.6393 8.10091 1.80118C9.06103 3.18439 9.99489 4.58757 10.9404 5.98163C11.0271 6.11009 11.1405 6.21903 11.2723 6.37354L15.3754 2.84022C14.9531 2.16446 14.5425 1.50736 14.0726 0.755206C16.8237 0.538628 19.5171 0.326708 22.2015 0.115505L23.6693 1.71661e-05L23.7181 0.102446L10.3864 9.47502C9.88483 9.82744 9.03518 10.4246 7.99418 11.1568Z" fill="#EC1C24"/>
</svg>

<svg xmlns="http://www.w3.org/2000/svg" width="24" height="17" fill="none" viewBox="0 0 24 17"><path fill="#ec1c24" d="M10.144 12.124C6.13 14.43 4 15.238.571 17L23.901.577l.099.08-4.483 8.95c-.376-.591-.723-1.115-1.044-1.655-.196-.328-.369-.425-.738-.202-1.27.763-2.564 1.48-3.848 2.219-.065.037-.12.096-.223.182 1.527 2.255 3.078 4.521 4.62 6.796l-.44-.004c-1.232.002-4.023-.014-4.023-.014s-.086-.122-.187-.27a192 192 0 0 1-2.98-4.425c-.18-.28-.292-.235-.51-.11m-2.15-.967-1.482 1.042L0 16.412l2.666-2.384c.94-.803 2.807-2.652 5.903-5.322L3.6 1.486l4.28.004c.001 0 .11.15.222.311.96 1.383 1.894 2.787 2.84 4.18.086.13.2.238.331.393l4.103-3.534L14.073.755 22.2.115 23.67 0l.05.102-13.333 9.373z"/></svg>
